X:1
T:Title
%%score { ( 1 4 ) | ( 2 3 ) }
L:1/8
M:4/4
K:Ab
V:1 treble nm="Grand Piano"
V:4 treble 
V:2 bass 
V:3 bass 
V:1
 z4 z2[Q:1/4=100] [CE]>[CA] | [Ec]2 [Ec]>[Ec] [Ec]2 [Fd]>[Ec] | [FB]2 [DF]2 [DF]2 [FA]2 | %3
 G>G G>A B2 d2 | [Ec]6 [CE]>[CA] | [Ec]2 [Ec]>[Ec] [Ec]2 [_Ge]2 | [Fe]2 [Fd]2 [Fd]2 [FB]2 | %7
 A>A G>A [EAc]2 .[DGB]2 |[M:3/4] [CEA]6 |[M:1/4] A>c |[M:4/4] e2 e>e e2 c2 | e6 z2 | %12
 [CFA]2 [CFA]2 [B,=DA]2 [Dc]>[DA] | [EB]6[K:bass] z2[K:treble] | [Ec]2 c2 c2 [_Ge]>[Ge] | %15
[M:9/8] [Fe]2 [Fd]- [Fd] [Fd]2- [Fd] [FB]2 |[M:4/4] A<A G>A [EAc]2 .[DGB]2 |[M:3/4] [CEA]6 |] %18
V:2
 z4 z2 [A,,A,]>[A,,A,] | [A,,A,]2 [A,,A,]>[A,,A,] [A,,A,]2 [A,,A,]>[A,,A,] | %2
 [D,A,]2 [D,A,]2 [D,A,]2 [D,D]2 | [E,B,E]>[E,B,E] [E,B,E]>[E,CE] [E,DE]2 [E,G,E]2 | %4
 [A,,A,]6 [A,,A,]>[A,,A,] | [A,,A,]2 [A,,A,]>[A,,A,] [A,,A,]2 [C,A,]2 | %6
 [D,A,]2 [D,A,]2 [D,A,]2 [D,D]2 | [E,CE]>[E,CE] [E,B,E]>[E,CE] E,2 z E |[M:3/4] A,,6 | %9
[M:1/4][K:treble] [A,CE]>[A,EA] |[M:4/4] [A,CA]2 [A,CA]>[A,CA] [A,CA]2 [A,EA]2 | %11
 [A,C]2 z2 z4[K:bass] | F,2 F,2 B,,2 [B,,A,]>[B,,B,] | [E,G,]2 E,>E, E,D, [C,A,]>[B,,G,] | %14
 [A,,A,]2 [A,E]2 [A,E]2 [C,A,]>[C,A,] |[M:9/8] [D,A,]2 [D,A,]- [D,A,] [D,A,]2- [D,A,] [D,D]2 | %16
[M:4/4] [E,CE]<[E,CE] [E,B,E]>[E,CE] E,2 z E |[M:3/4] A,,6 |] %18
V:3
 x8 | x8 | x8 | x8 | x8 | x8 | x8 | z4 z2 E,2 |[M:3/4] x6 |[M:1/4][K:treble] x2 |[M:4/4] x8 | %11
 A2- [A,A-]2 [A,A]2[K:bass] E,>E, | x8 | x8 | x8 |[M:9/8] x9 |[M:4/4] z4 z2 E,2 |[M:3/4] x6 |] %18
V:4
 x8 | x8 | x8 | x8 | x8 | x8 | x8 | x8 |[M:3/4] x6 |[M:1/4] x2 |[M:4/4] x8 | z2 C2 C2 [EGc]>[DGB] | %12
 x8 | z2[K:bass] G,>G, G,B, E>[K:treble]E | x8 |[M:9/8] x9 |[M:4/4] x8 |[M:3/4] x6 |] %18

